**harm	**harte	**timestamp	**phrase	**leadinstrument	**kern
*M4/4	*M4/4	*	*	*	*
*D:	*D:	*	*	*	*D:
1r;	N	0	.	r	1r;
=1	=1	=1	=1	=1	=1
*>A_intro	*>A_intro	*>A_intro	*>A_intro	*>A_intro	*>A_intro
1I	D:maj	0.372	newline	guitar	1D 1f# 1a
=2	=2	=2	=2	=2	=2
1I	D:maj	2.346	.	guitar	1D 1f# 1a
=3	=3	=3	=3	=3	=3
1I	D:maj	4.32	newline	guitar	1D 1f# 1a
=4	=4	=4	=4	=4	=4
1I	D:maj	6.278	.	guitar	1D 1f# 1a
=5	=5	=5	=5	=5	=5
1I	D:maj	8.237	.	guitar	1D 1f# 1a
=6	=6	=6	=6	=6	=6
1I	D:maj	10.195	.	guitar	1D 1f# 1a
=7	=7	=7	=7	=7	=7
*>B_verse	*>B_verse	*>B_verse	*>B_verse	*>B_verse	*>B_verse
1I	D:maj	12.153	newline	voice	1D 1f# 1a
=8	=8	=8	=8	=8	=8
1-VII	C:maj	14.092	.	voice	1C 1e 1g
=9	=9	=9	=9	=9	=9
1IV	G:maj	16.031	.	voice	1G 1b 1dd
=10	=10	=10	=10	=10	=10
1I	D:maj	17.969	.	voice	1D 1f# 1a
=11	=11	=11	=11	=11	=11
1I	D:maj	19.908	newline	voice	1D 1f# 1a
=12	=12	=12	=12	=12	=12
1-VII	C:maj	21.852	.	voice	1C 1e 1g
=13	=13	=13	=13	=13	=13
1IV	G:maj	23.797	.	voice	1G 1b 1dd
=14	=14	=14	=14	=14	=14
1I	D:maj	25.742	.	voice	1D 1f# 1a
=15	=15	=15	=15	=15	=15
1I	D:maj	27.686	.	voice	1D 1f# 1a
=16	=16	=16	=16	=16	=16
*>B_verse	*>B_verse	*>B_verse	*>B_verse	*>B_verse	*>B_verse
1I	D:maj	29.631	newline	voice	1D 1f# 1a
=17	=17	=17	=17	=17	=17
1-VII	C:maj	31.578	.	voice	1C 1e 1g
=18	=18	=18	=18	=18	=18
1IV	G:maj	33.525	.	voice	1G 1b 1dd
=19	=19	=19	=19	=19	=19
1I	D:maj	35.472	.	voice	1D 1f# 1a
=20	=20	=20	=20	=20	=20
1I	D:maj	37.419	newline	voice	1D 1f# 1a
=21	=21	=21	=21	=21	=21
1-VII	C:maj	39.367	.	voice	1C 1e 1g
=22	=22	=22	=22	=22	=22
1IV	G:maj	41.316	.	voice	1G 1b 1dd
=23	=23	=23	=23	=23	=23
1I	D:maj	43.265	.	voice	1D 1f# 1a
=24	=24	=24	=24	=24	=24
1I	D:maj	45.214	.	voice	1D 1f# 1a
=25	=25	=25	=25	=25	=25
2-VII	C:maj	47.162	newline	voice	2C 2e 2g
2IV	G:maj	48.145	.	voice	2G 2b 2dd
=26	=26	=26	=26	=26	=26
1I	D:maj	49.128	.	voice	1D 1f# 1a
=27	=27	=27	=27	=27	=27
*>C_chorus	*>C_chorus	*>C_chorus	*>C_chorus	*>C_chorus	*>C_chorus
1-VII	C:maj	51.094	newline	voice	1C 1e 1g
=28	=28	=28	=28	=28	=28
1I	D:maj	53.072	.	voice	1D 1f# 1a
=29	=29	=29	=29	=29	=29
1-VII	C:maj	55.051	.	voice	1C 1e 1g
=30	=30	=30	=30	=30	=30
1I	D:maj	57.029	.	voice	1D 1f# 1a
=31	=31	=31	=31	=31	=31
1I	D:maj	59.008	.	voice	1D 1f# 1a
=32	=32	=32	=32	=32	=32
1-VII	C:maj	60.987	newline	voice	1C 1e 1g
=33	=33	=33	=33	=33	=33
1IV	G:maj	62.938	.	voice	1G 1b 1dd
=34	=34	=34	=34	=34	=34
1I	D:maj	64.889	.	voice	1D 1f# 1a
=35	=35	=35	=35	=35	=35
1I	D:maj	66.84	.	voice	1D 1f# 1a
=36	=36	=36	=36	=36	=36
2-VII	C:maj	68.791	newline	guitar	2C 2e 2g
2IV	G:maj	69.783	.	guitar	2G 2b 2dd
=37	=37	=37	=37	=37	=37
1I	D:maj	70.774	.	guitar	1D 1f# 1a
=38	=38	=38	=38	=38	=38
*>B_verse	*>B_verse	*>B_verse	*>B_verse	*>B_verse	*>B_verse
1I	D:maj	72.757	newline	voice	1D 1f# 1a
=39	=39	=39	=39	=39	=39
1-VII	C:maj	74.716	.	voice	1C 1e 1g
=40	=40	=40	=40	=40	=40
1IV	G:maj	76.674	.	voice	1G 1b 1dd
=41	=41	=41	=41	=41	=41
1I	D:maj	78.632	.	voice	1D 1f# 1a
=42	=42	=42	=42	=42	=42
1I	D:maj	80.59	newline	voice	1D 1f# 1a
=43	=43	=43	=43	=43	=43
1-VII	C:maj	82.542	.	voice	1C 1e 1g
=44	=44	=44	=44	=44	=44
1IV	G:maj	84.493	.	voice	1G 1b 1dd
=45	=45	=45	=45	=45	=45
1I	D:maj	86.445	.	voice	1D 1f# 1a
=46	=46	=46	=46	=46	=46
1I	D:maj	88.396	.	voice	1D 1f# 1a
=47	=47	=47	=47	=47	=47
*>B_verse	*>B_verse	*>B_verse	*>B_verse	*>B_verse	*>B_verse
1I	D:maj	90.348	newline	voice	1D 1f# 1a
=48	=48	=48	=48	=48	=48
1-VII	C:maj	92.31	.	voice	1C 1e 1g
=49	=49	=49	=49	=49	=49
1IV	G:maj	94.273	.	voice	1G 1b 1dd
=50	=50	=50	=50	=50	=50
1I	D:maj	96.236	.	voice	1D 1f# 1a
=51	=51	=51	=51	=51	=51
1I	D:maj	98.199	newline	voice	1D 1f# 1a
=52	=52	=52	=52	=52	=52
1-VII	C:maj	100.16	.	voice	1C 1e 1g
=53	=53	=53	=53	=53	=53
1IV	G:maj	102.122	.	voice	1G 1b 1dd
=54	=54	=54	=54	=54	=54
1I	D:maj	104.083	.	voice	1D 1f# 1a
=55	=55	=55	=55	=55	=55
1I	D:maj	106.045	.	voice	1D 1f# 1a
=56	=56	=56	=56	=56	=56
2-VII	C:maj	108.006	newline	voice	2C 2e 2g
2IV	G:maj	108.994	.	voice	2G 2b 2dd
=57	=57	=57	=57	=57	=57
1I	D:maj	109.981	.	voice	1D 1f# 1a
=58	=58	=58	=58	=58	=58
*>D_solo	*>D_solo	*>D_solo	*>D_solo	*>D_solo	*>D_solo
1-VII	C:maj	111.957	newline	flute	1C 1e 1g
=59	=59	=59	=59	=59	=59
1IV	G:maj	113.927	.	flute	1G 1b 1dd
=60	=60	=60	=60	=60	=60
1I	D:maj	115.897	.	flute	1D 1f# 1a
=61	=61	=61	=61	=61	=61
1I	D:maj	117.867	.	flute	1D 1f# 1a
=62	=62	=62	=62	=62	=62
1-VII	C:maj	119.837	newline	flute	1C 1e 1g
=63	=63	=63	=63	=63	=63
1IV	G:maj	121.808	.	flute	1G 1b 1dd
=64	=64	=64	=64	=64	=64
1I	D:maj	123.778	.	flute	1D 1f# 1a
=65	=65	=65	=65	=65	=65
*>B_verse	*>B_verse	*>B_verse	*>B_verse	*>B_verse	*>B_verse
1I	D:maj	125.748	->newline	voice	1D 1f# 1a
=66	=66	=66	=66	=66	=66
1-VII	C:maj	127.724	.	voice	1C 1e 1g
=67	=67	=67	=67	=67	=67
1IV	G:maj	129.699	.	voice	1G 1b 1dd
=68	=68	=68	=68	=68	=68
1I	D:maj	131.674	.	voice	1D 1f# 1a
=69	=69	=69	=69	=69	=69
1I	D:maj	133.649	newline	voice	1D 1f# 1a
=70	=70	=70	=70	=70	=70
1-VII	C:maj	135.622	.	voice	1C 1e 1g
=71	=71	=71	=71	=71	=71
1IV	G:maj	137.594	.	voice	1G 1b 1dd
=72	=72	=72	=72	=72	=72
1I	D:maj	139.566	.	voice	1D 1f# 1a
=73	=73	=73	=73	=73	=73
1I	D:maj	141.539	.	voice	1D 1f# 1a
=74	=74	=74	=74	=74	=74
1I	D:maj	143.511	newline	voice	1D 1f# 1a
=75	=75	=75	=75	=75	=75
1I	D:maj	145.465	.	voice	1D 1f# 1a
=76	=76	=76	=76	=76	=76
1I	D:maj	147.42	newline	voice	1D 1f# 1a
=77	=77	=77	=77	=77	=77
1-VII	C:maj	149.404	.	voice	1C 1e 1g
=78	=78	=78	=78	=78	=78
1IV	G:maj	151.387	.	voice	1G 1b 1dd
=79	=79	=79	=79	=79	=79
1I	D:maj	153.371	.	voice	1D 1f# 1a
=80	=80	=80	=80	=80	=80
1I	D:maj	155.355	.	voice	1D 1f# 1a
=81	=81	=81	=81	=81	=81
2-VII	C:maj	157.338	newline	voice	2C 2e 2g
2IV	G:maj	158.321	.	voice	2G 2b 2dd
=82	=82	=82	=82	=82	=82
1I	D:maj	159.303	.	voice	1D 1f# 1a
1r;	N	165.195	.	r	1r;
1r;	N	178.329	.	r	1r;
1r;	N	181.238	.	r	1r;
*-	*-	*-	*-	*-	*-
!!!OTL: If I Were A Carpenter
!!!COC: Bobby Darin
!!!BillboardChartDate: 1966/10/01
!!!BillboardPeak: 8
!!!BillboardWeeksOnChart: 11
!!!SampleTargetRank: 51
!!!SampleActualRank: 51
!!!SampleID#: 1265
!!!RDF**harmony: **recip + pitch class of root + harmonic quality
!!!RDF**harte: Chris Harte's syntax, used by MIREX
!!!RDF**phrase: newline = linebreak in original McGill transcription
!!!RDF**timestamp: McGill audio timestamp in seconds
!!!RDF**leadinstrument: original McGill primary instrumentation annotation
!!!RDT: 2017/01/12/
!!!ENC: Nathaniel Condit-Schultz
!!!EST: Awating manual error checking and editing.
